X: 35006
T: Roisin Dubh
R: hornpipe
M: 4/4
K: Dmajor
|:AB/A/ FG/A/ D3A|FAe4f/e/d/(e/|f4){g}fe{g}e(d|d6){A}B2|{B}A/F/E6F/E/D/E/|F3{A}F {A}E>{A}E{A}(D2|HD8)|
d3e<fg3|{a}g f{a}f e/e/ d3e/f/|{G}A5 {c}B/A/FA|e4 f/e/d/(e/|f3){g}f e3{f}e|d8|
d3e<fg3|{a}g f{a}f e/e/ d3e/f/|{G}A5 {c}B/A/FA|e4 f/e/d/(e/|f3){g}f e3{f}He|d<(B B5)d/B/|
A2{B}A F<A HD3A|FAe4f/e/d/(e/|f4){g}fe{g}e(d|d6){A}B2|{B}A/F/E6F/E/D/E/|F3{A}F {A}E>{A}E{A}(D2|HD8):|

